; generated by PrusaSlicer 2.2.0 on 2021-03-26 at 12:43:49 UTC

; 

; external perimeters extrusion width = 0.45mm
; perimeters extrusion width = 0.45mm
; infill extrusion width = 0.45mm
; solid infill extrusion width = 0.45mm
; top infill extrusion width = 0.40mm
; support material extrusion width = 0.40mm
; first layer extrusion width = 0.70mm

M107
M104 S200 ; set temperature
G28 ; home all axes
G1 Z5 F5000 ; lift nozzle
M109 S200 ; set temperature and wait for it to be reached
G21 ; set units to millimeters
G90 ; use absolute coordinates
M82 ; use absolute distances for extrusion
G92 E0
; Filament gcode
G1 Z0.350 F7800.000
G1 E-2.00000 F2400.00000
G92 E0
G1 X85.693 Y60.567 F7800.000
G1 E2.00000 F2400.00000
G1 F1800.000
G1 X86.821 Y59.892 E2.11949
G1 X88.060 Y59.454 E2.23898
G1 X89.361 Y59.269 E2.35848
G1 X136.489 Y59.263 E6.64389
G1 X137.703 Y59.377 E6.75475
G1 X138.876 Y59.710 E6.86560
G1 X139.962 Y60.250 E6.97589
G1 X140.936 Y60.983 E7.08675
G1 X141.760 Y61.882 E7.19761
G1 X142.404 Y62.917 E7.30846
G1 X142.849 Y64.052 E7.41932
G1 X143.077 Y65.250 E7.53018
G1 X145.368 Y111.267 E11.71967
G1 X145.347 Y129.178 E13.34831
G1 X145.174 Y130.250 E13.44707
G1 X144.827 Y131.279 E13.54583
G1 X144.317 Y132.238 E13.64460
G1 X143.657 Y133.101 E13.74336
G1 X142.774 Y133.914 E13.85249
G1 X141.765 Y134.552 E13.96105
G1 X119.956 Y145.664 E16.18673
G1 X118.969 Y146.054 E16.28319
G1 X117.933 Y146.282 E16.37964
G1 X117.039 Y146.343 E16.46111
G1 X63.572 Y146.341 E21.32287
G1 X62.411 Y146.205 E21.42912
G1 X61.293 Y145.868 E21.53537
G1 X60.250 Y145.339 E21.64162
G1 X59.313 Y144.632 E21.74845
G1 X56.442 Y141.715 E22.12057
G1 X55.785 Y140.899 E22.21587
G1 X55.363 Y140.188 E22.29099
G1 X55.032 Y139.431 E22.36611
G1 X54.798 Y138.639 E22.44123
G1 X54.665 Y137.824 E22.51634
G1 X54.632 Y102.771 E25.70364
G1 X54.708 Y101.815 E25.79088
G1 X54.921 Y100.880 E25.87811
G1 X55.306 Y99.905 E25.97341
G1 X55.836 Y99.008 E26.06814
G1 X66.337 Y84.646 E27.68593
G1 X84.724 Y61.445 E30.37773
G1 X85.648 Y60.607 E30.49119
G1 E28.49119 F2400.00000
G92 E0
G1 X88.752 Y74.179 F7800.000
G1 E2.00000 F2400.00000
G1 F1800.000
G1 X88.752 Y80.014 E2.53064
G1 X87.502 Y81.454 E2.70396
G1 X87.502 Y74.460 E3.33991
G1 X86.252 Y74.460 E3.45355
G1 X86.252 Y82.893 E4.22036
G1 X85.003 Y84.332 E4.39369
G1 X85.003 Y77.295 E5.03353
G1 X83.753 Y77.295 E5.14717
G1 X83.753 Y85.771 E5.91788
G1 X82.503 Y87.211 E6.09121
G1 X82.503 Y80.131 E6.73495
G1 X81.253 Y80.131 E6.84860
G1 X81.253 Y88.650 E7.62321
G1 X80.004 Y90.089 E7.79654
G1 X80.004 Y82.967 E8.44418
G1 X78.754 Y82.967 E8.55783
G1 X78.754 Y91.528 E9.33634
G1 X77.504 Y92.968 E9.50967
G1 X77.504 Y82.967 E10.41906
G1 X77.295 Y82.967 E10.43803
G1 X77.295 Y85.802 E10.69587
G1 X76.254 Y85.802 E10.79054
G1 X76.254 Y94.407 E11.57296
G1 X75.004 Y95.846 E11.74629
G1 X75.004 Y85.802 E12.65958
G1 X74.460 Y85.802 E12.70911
G1 X74.460 Y88.638 E12.96695
G1 X73.755 Y88.638 E13.03106
G1 X73.755 Y97.285 E13.81738
G1 X72.505 Y98.725 E13.99071
G1 X72.505 Y88.638 E14.90790
G1 X71.624 Y88.638 E14.98799
G1 X71.624 Y94.309 E15.50367
G1 X71.255 Y94.309 E15.53723
G1 X71.255 Y100.164 E16.06961
G1 X70.005 Y101.603 E16.24294
G1 X70.005 Y94.309 E16.90619
G1 X68.789 Y94.309 E17.01684
G1 X68.789 Y97.145 E17.27468
G1 X68.756 Y97.145 E17.27767
G1 X68.756 Y103.042 E17.81396
G1 X67.506 Y104.482 E17.98728
G1 X67.506 Y97.145 E18.65444
G1 X66.256 Y97.145 E18.76808
G1 X66.256 Y105.921 E19.56611
G1 X65.006 Y107.360 E19.73943
G1 X65.006 Y99.980 E20.41049
G1 X63.756 Y99.980 E20.52413
G1 X63.756 Y108.800 E21.32606
G1 X63.054 Y109.609 E21.42355
G1 X62.986 Y109.791 E21.44121
G1 X62.986 Y115.111 E21.92493
G1 X63.300 Y115.426 E21.96541
G1 X63.756 Y115.426 E22.00688
G1 X63.756 Y139.718 E24.21581
G1 X65.006 Y139.718 E24.32946
G1 X65.006 Y115.426 E26.53839
G1 X66.256 Y115.426 E26.65203
G1 X66.256 Y139.718 E28.86096
G1 X67.506 Y139.718 E28.97460
G1 X67.506 Y115.426 E31.18354
G1 X68.756 Y115.426 E31.29718
G1 X68.756 Y139.718 E33.50611
G1 X70.005 Y139.718 E33.61975
G1 X70.005 Y115.426 E35.82869
G1 X71.255 Y115.426 E35.94233
G1 X71.255 Y139.718 E38.15126
G1 X72.505 Y139.718 E38.26490
G1 X72.505 Y116.994 E40.33121
G1 X73.755 Y116.994 E40.44485
G1 X73.755 Y139.718 E42.51116
G1 X75.004 Y139.718 E42.62481
G1 X75.004 Y116.994 E44.69112
G1 X76.254 Y116.994 E44.80476
G1 X76.254 Y139.718 E46.87107
G1 X77.504 Y139.718 E46.98471
G1 X77.504 Y116.994 E49.05102
G1 X78.754 Y116.994 E49.16466
G1 X78.754 Y139.718 E51.23097
G1 X80.004 Y139.718 E51.34462
G1 X80.004 Y116.994 E53.41093
G1 X80.170 Y116.994 E53.42609
G1 X80.170 Y119.830 E53.68393
G1 X81.253 Y119.830 E53.78241
G1 X81.253 Y139.718 E55.59088
G1 X82.503 Y139.718 E55.70452
G1 X82.503 Y119.830 E57.51299
G1 X83.753 Y119.830 E57.62663
G1 X83.753 Y139.718 E59.43510
G1 X85.003 Y139.718 E59.54874
G1 X85.003 Y119.830 E61.35721
G1 X86.252 Y119.830 E61.47085
G1 X86.252 Y139.718 E63.27932
G1 X87.502 Y139.718 E63.39296
G1 X87.502 Y119.830 E65.20143
G1 X88.752 Y119.830 E65.31507
G1 X88.752 Y139.718 E67.12354
G1 X90.002 Y139.718 E67.23718
G1 X90.002 Y119.830 E69.04565
G1 X91.252 Y119.830 E69.15929
G1 X91.252 Y139.718 E70.96776
G1 X92.501 Y139.718 E71.08141
G1 X92.501 Y119.830 E72.88987
G1 X93.751 Y119.830 E73.00352
G1 X93.751 Y139.718 E74.81198
G1 X95.001 Y139.718 E74.92563
G1 X95.001 Y119.830 E76.73410
G1 X96.251 Y119.830 E76.84774
G1 X96.251 Y139.718 E78.65621
G1 X97.500 Y139.718 E78.76985
G1 X97.500 Y122.665 E80.32047
G1 X98.750 Y122.665 E80.43412
G1 X98.750 Y139.718 E81.98474
G1 X100.000 Y139.718 E82.09839
G1 X100.000 Y116.994 E84.16470
G1 X101.250 Y116.994 E84.27834
G1 X101.250 Y139.718 E86.34465
G1 X102.500 Y139.718 E86.45829
G1 X102.500 Y116.994 E88.52460
G1 X103.749 Y116.994 E88.63824
G1 X103.749 Y139.718 E90.70455
G1 X104.999 Y139.718 E90.81819
G1 X104.999 Y116.994 E92.88451
G1 X106.249 Y116.994 E92.99815
G1 X106.249 Y139.718 E95.06446
G1 X107.499 Y139.718 E95.17810
G1 X107.499 Y116.994 E97.24441
G1 X108.748 Y116.994 E97.35805
G1 X108.748 Y139.718 E99.42436
G1 X109.998 Y139.718 E99.53800
G1 X109.998 Y116.994 E101.60431
G1 X111.248 Y116.994 E101.71796
G1 X111.248 Y139.718 E103.78427
G1 X112.498 Y139.718 E103.89791
G1 X112.498 Y116.994 E105.96422
G1 X113.748 Y116.994 E106.07786
G1 X113.748 Y139.718 E108.14417
G1 X114.997 Y139.718 E108.25781
G1 X114.997 Y116.994 E110.32412
G1 X116.247 Y116.994 E110.43777
G1 X116.247 Y139.718 E112.50408
G1 X117.033 Y139.718 E112.57557
G1 X117.033 Y136.883 E112.83341
G1 X117.497 Y136.883 E112.87556
G1 X117.497 Y116.994 E114.68403
G1 X118.747 Y116.994 E114.79767
G1 X118.747 Y136.883 E116.60614
G1 X119.996 Y136.883 E116.71978
G1 X119.996 Y119.830 E118.27041
G1 X121.246 Y119.830 E118.38405
G1 X121.246 Y136.883 E119.93468
G1 X122.496 Y136.883 E120.04832
G1 X122.496 Y119.830 E121.59895
G1 X122.665 Y119.830 E121.61434
G1 X122.665 Y116.994 E121.87218
G1 X123.746 Y116.994 E121.97043
G1 X123.746 Y131.211 E123.26321
G1 X124.996 Y131.211 E123.37686
G1 X124.996 Y116.994 E124.66964
G1 X126.245 Y116.994 E124.78328
G1 X126.245 Y131.211 E126.07607
G1 X127.495 Y131.211 E126.18971
G1 X127.495 Y116.994 E127.48250
G1 X128.337 Y116.994 E127.55900
G1 X128.337 Y115.426 E127.70163
G1 X128.745 Y115.426 E127.73876
G1 X128.745 Y131.211 E129.17417
G1 X129.995 Y131.211 E129.28781
G1 X129.995 Y115.426 E130.72322
G1 X131.244 Y115.426 E130.83686
G1 X131.244 Y128.376 E132.01443
G1 X132.494 Y128.376 E132.12807
G1 X132.494 Y115.426 E133.30563
G1 X133.744 Y115.426 E133.41927
G1 X133.744 Y128.376 E134.59684
G1 X134.994 Y128.376 E134.71048
G1 X134.994 Y115.426 E135.88805
G1 X136.244 Y115.426 E136.00169
G1 X136.244 Y128.376 E137.17926
G1 X137.493 Y128.376 E137.29290
G1 X137.493 Y111.323 E138.84353
G1 X138.743 Y111.323 E138.95717
G1 X138.743 Y128.657 E140.53336
G1 E138.53336 F2400.00000
G92 E0
G1 X62.507 Y137.164 F7800.000
G1 E2.00000 F2400.00000
G1 F1800.000
G1 X62.507 Y102.816 E5.12325
G1 X61.257 Y102.816 E5.23689
G1 X61.257 Y137.164 E8.36013
G1 E6.36013 F2400.00000
G92 E0
G1 X99.708 Y73.320 F7800.000
G1 E2.00000 F2400.00000
G1 F1800.000
G1 X99.399 Y73.618 E2.03898
G1 X99.051 Y73.867 E2.07797
G1 X98.669 Y74.063 E2.11695
G1 X98.264 Y74.202 E2.15594
G1 X97.834 Y74.281 E2.19567
G1 X97.368 Y74.290 E2.23800
G1 X96.987 Y74.249 E2.27287
G1 X96.565 Y74.138 E2.31260
G1 X96.139 Y73.949 E2.35493
G1 X95.812 Y73.749 E2.38979
G1 X95.482 Y73.475 E2.42878
G1 X95.196 Y73.155 E2.46776
G1 X94.960 Y72.798 E2.50675
G1 X94.778 Y72.410 E2.54574
G1 X94.654 Y71.999 E2.58472
G1 X94.591 Y71.567 E2.62445
G1 X94.598 Y71.101 E2.66678
G1 X94.654 Y70.722 E2.70165
G1 X94.778 Y70.311 E2.74063
G1 X94.960 Y69.923 E2.77962
G1 X95.196 Y69.566 E2.81860
G1 X95.482 Y69.246 E2.85759
G1 X95.812 Y68.972 E2.89657
G1 X96.178 Y68.749 E2.93556
G1 X96.580 Y68.578 E2.97529
G1 X97.032 Y68.468 E3.01762
G1 X97.414 Y68.426 E3.05248
G1 X97.842 Y68.441 E3.09147
G1 X98.264 Y68.519 E3.13046
G1 X98.669 Y68.658 E3.16944
G1 X99.051 Y68.854 E3.20843
G1 X99.399 Y69.103 E3.24741
G1 X99.708 Y69.401 E3.28640
G1 X99.970 Y69.740 E3.32538
G1 X100.180 Y70.114 E3.36437
G1 X100.333 Y70.514 E3.40335
G1 X100.426 Y70.933 E3.44234
G1 X100.458 Y71.361 E3.48132
G1 X100.426 Y71.788 E3.52031
G1 X100.333 Y72.207 E3.55929
G1 X100.180 Y72.607 E3.59828
G1 X99.970 Y72.981 E3.63727
G1 X99.745 Y73.273 E3.67080
G1 X99.241 Y72.902 F7800.000
G1 F1800.000
G1 X98.999 Y73.136 E3.70146
G1 X98.724 Y73.333 E3.73213
G1 X98.424 Y73.487 E3.76280
G1 X98.105 Y73.596 E3.79347
G1 X97.771 Y73.657 E3.82440
G1 X97.397 Y73.665 E3.85841
G1 X97.101 Y73.632 E3.88544
G1 X96.772 Y73.546 E3.91637
G1 X96.430 Y73.394 E3.95039
G1 X96.177 Y73.239 E3.97741
G1 X95.917 Y73.024 E4.00808
G1 X95.692 Y72.773 E4.03875
G1 X95.506 Y72.491 E4.06941
G1 X95.363 Y72.186 E4.10008
G1 X95.266 Y71.863 E4.13075
G1 X95.216 Y71.526 E4.16169
G1 X95.223 Y71.152 E4.19570
G1 X95.266 Y70.858 E4.22272
G1 X95.363 Y70.535 E4.25339
G1 X95.506 Y70.230 E4.28406
G1 X95.692 Y69.949 E4.31473
G1 X95.917 Y69.697 E4.34540
G1 X96.177 Y69.482 E4.37606
G1 X96.464 Y69.306 E4.40673
G1 X96.778 Y69.173 E4.43767
G1 X97.141 Y69.084 E4.47168
G1 X97.436 Y69.052 E4.49870
G1 X97.773 Y69.064 E4.52937
G1 X98.105 Y69.125 E4.56004
G1 X98.424 Y69.234 E4.59071
G1 X98.724 Y69.389 E4.62137
G1 X98.999 Y69.585 E4.65204
G1 X99.241 Y69.819 E4.68271
G1 X99.447 Y70.086 E4.71338
G1 X99.613 Y70.380 E4.74405
G1 X99.733 Y70.695 E4.77471
G1 X99.806 Y71.024 E4.80538
G1 X99.831 Y71.361 E4.83605
G1 X99.806 Y71.697 E4.86672
G1 X99.733 Y72.026 E4.89739
G1 X99.613 Y72.341 E4.92805
G1 X99.447 Y72.635 E4.95872
G1 X99.278 Y72.855 E4.98393
G1 X99.346 Y73.223 F7800.000
G1 E2.98393 F2400.00000
G92 E0
G1 X97.979 Y98.196 F7800.000
G1 E2.00000 F2400.00000
G1 F1800.000
G1 X98.581 Y98.307 E2.05562
G1 X99.159 Y98.504 E2.11124
G1 X99.703 Y98.784 E2.16686
G1 X100.201 Y99.140 E2.22248
G1 X100.641 Y99.565 E2.27810
G1 X101.015 Y100.049 E2.33372
G1 X101.315 Y100.582 E2.38934
G1 X101.533 Y101.153 E2.44496
G1 X101.666 Y101.751 E2.50058
G1 X101.712 Y102.379 E2.55791
G1 X101.654 Y103.025 E2.61687
G1 X101.533 Y103.568 E2.66742
G1 X101.315 Y104.139 E2.72304
G1 X101.015 Y104.672 E2.77866
G1 X100.641 Y105.157 E2.83428
G1 X100.201 Y105.581 E2.88990
G1 X99.703 Y105.937 E2.94552
G1 X99.159 Y106.217 E3.00114
G1 X98.581 Y106.414 E3.05676
G1 X97.979 Y106.525 E3.11238
G1 X97.368 Y106.548 E3.16800
G1 X96.760 Y106.481 E3.22362
G1 X96.150 Y106.321 E3.28094
G1 X95.557 Y106.058 E3.33991
G1 X95.083 Y105.768 E3.39045
G1 X94.613 Y105.377 E3.44607
G1 X94.192 Y104.907 E3.50340
G1 X93.843 Y104.361 E3.56236
G1 X93.607 Y103.857 E3.61291
G1 X93.431 Y103.272 E3.66853
G1 X93.339 Y102.648 E3.72585
G1 X93.350 Y102.000 E3.78482
G1 X93.431 Y101.450 E3.83536
G1 X93.607 Y100.864 E3.89098
G1 X93.867 Y100.310 E3.94660
G1 X94.204 Y99.800 E4.00222
G1 X94.613 Y99.344 E4.05785
G1 X95.083 Y98.953 E4.11346
G1 X95.605 Y98.634 E4.16908
G1 X96.185 Y98.388 E4.22641
G1 X96.815 Y98.234 E4.28537
G1 X97.368 Y98.173 E4.33592
G1 X97.919 Y98.194 E4.38608
G1 X97.911 Y98.819 F7800.000
G1 F1800.000
G1 X98.422 Y98.913 E4.43339
G1 X98.914 Y99.081 E4.48069
G1 X99.377 Y99.319 E4.52799
G1 X99.800 Y99.622 E4.57529
G1 X100.175 Y99.983 E4.62260
G1 X100.493 Y100.394 E4.66990
G1 X100.747 Y100.848 E4.71720
G1 X100.933 Y101.334 E4.76451
G1 X101.046 Y101.842 E4.81181
G1 X101.085 Y102.374 E4.86034
G1 X101.035 Y102.929 E4.91098
G1 X100.933 Y103.387 E4.95369
G1 X100.747 Y103.873 E5.00099
G1 X100.493 Y104.327 E5.04829
G1 X100.175 Y104.738 E5.09560
G1 X99.800 Y105.100 E5.14290
G1 X99.377 Y105.402 E5.19020
G1 X98.914 Y105.640 E5.23750
G1 X98.422 Y105.808 E5.28481
G1 X97.911 Y105.903 E5.33211
G1 X97.391 Y105.922 E5.37941
G1 X96.874 Y105.865 E5.42672
G1 X96.357 Y105.730 E5.47525
G1 X95.848 Y105.503 E5.52589
G1 X95.447 Y105.259 E5.56860
G1 X95.048 Y104.926 E5.61590
G1 X94.691 Y104.528 E5.66443
G1 X94.392 Y104.059 E5.71507
G1 X94.193 Y103.634 E5.75778
G1 X94.043 Y103.135 E5.80508
G1 X93.965 Y102.607 E5.85361
G1 X93.974 Y102.050 E5.90426
G1 X94.043 Y101.586 E5.94696
G1 X94.193 Y101.088 E5.99427
G1 X94.413 Y100.617 E6.04157
G1 X94.700 Y100.183 E6.08887
G1 X95.048 Y99.795 E6.13618
G1 X95.447 Y99.463 E6.18348
G1 X95.891 Y99.192 E6.23078
G1 X96.383 Y98.983 E6.27931
G1 X96.924 Y98.851 E6.32995
G1 X97.391 Y98.800 E6.37266
G1 X97.851 Y98.816 E6.41451
G1 X97.842 Y99.441 F7800.000
G1 F1800.000
G1 X98.264 Y99.519 E6.45349
G1 X98.669 Y99.658 E6.49248
G1 X99.051 Y99.854 E6.53146
G1 X99.399 Y100.103 E6.57045
G1 X99.708 Y100.401 E6.60943
G1 X99.970 Y100.740 E6.64842
G1 X100.180 Y101.114 E6.68741
G1 X100.333 Y101.515 E6.72639
G1 X100.426 Y101.933 E6.76538
G1 X100.458 Y102.369 E6.80511
G1 X100.416 Y102.832 E6.84744
G1 X100.333 Y103.207 E6.88230
G1 X100.180 Y103.607 E6.92129
G1 X99.970 Y103.981 E6.96027
G1 X99.708 Y104.320 E6.99926
G1 X99.399 Y104.618 E7.03824
G1 X99.051 Y104.867 E7.07723
G1 X98.669 Y105.063 E7.11621
G1 X98.264 Y105.202 E7.15520
G1 X97.842 Y105.280 E7.19418
G1 X97.414 Y105.295 E7.23317
G1 X96.987 Y105.249 E7.27216
G1 X96.565 Y105.138 E7.31189
G1 X96.139 Y104.949 E7.35422
G1 X95.812 Y104.749 E7.38908
G1 X95.482 Y104.475 E7.42807
G1 X95.191 Y104.149 E7.46780
G1 X94.941 Y103.757 E7.51013
G1 X94.778 Y103.410 E7.54499
G1 X94.654 Y102.999 E7.58398
G1 X94.591 Y102.567 E7.62371
G1 X94.598 Y102.101 E7.66604
G1 X94.654 Y101.722 E7.70090
G1 X94.778 Y101.311 E7.73989
G1 X94.960 Y100.923 E7.77887
G1 X95.196 Y100.566 E7.81786
G1 X95.482 Y100.246 E7.85685
G1 X95.812 Y99.972 E7.89583
G1 X96.178 Y99.749 E7.93482
G1 X96.580 Y99.578 E7.97455
G1 X97.032 Y99.468 E8.01688
G1 X97.414 Y99.426 E8.05174
G1 X97.782 Y99.439 E8.08527
G1 X97.773 Y100.064 F7800.000
G1 F1800.000
G1 X98.105 Y100.125 E8.11594
G1 X98.424 Y100.234 E8.14661
G1 X98.724 Y100.389 E8.17728
G1 X98.999 Y100.585 E8.20794
G1 X99.241 Y100.819 E8.23861
G1 X99.447 Y101.086 E8.26928
G1 X99.613 Y101.380 E8.29995
G1 X99.733 Y101.695 E8.33062
G1 X99.806 Y102.024 E8.36128
G1 X99.831 Y102.364 E8.39222
G1 X99.798 Y102.736 E8.42623
G1 X99.733 Y103.026 E8.45326
G1 X99.613 Y103.341 E8.48392
G1 X99.447 Y103.635 E8.51459
G1 X99.241 Y103.902 E8.54526
G1 X98.999 Y104.136 E8.57593
G1 X98.724 Y104.333 E8.60660
G1 X98.424 Y104.487 E8.63726
G1 X98.105 Y104.596 E8.66793
G1 X97.773 Y104.657 E8.69860
G1 X97.436 Y104.669 E8.72927
G1 X97.101 Y104.632 E8.75994
G1 X96.772 Y104.546 E8.79087
G1 X96.430 Y104.394 E8.82488
G1 X96.177 Y104.239 E8.85191
G1 X95.917 Y104.024 E8.88257
G1 X95.690 Y103.770 E8.91351
G1 X95.489 Y103.455 E8.94752
G1 X95.363 Y103.186 E8.97455
G1 X95.266 Y102.863 E9.00522
G1 X95.216 Y102.526 E9.03615
G1 X95.223 Y102.152 E9.07016
G1 X95.266 Y101.858 E9.09719
G1 X95.363 Y101.535 E9.12786
G1 X95.506 Y101.230 E9.15852
G1 X95.692 Y100.949 E9.18919
G1 X95.917 Y100.697 E9.21986
G1 X96.177 Y100.482 E9.25053
G1 X96.464 Y100.306 E9.28119
G1 X96.778 Y100.173 E9.31213
G1 X97.141 Y100.084 E9.34614
G1 X97.436 Y100.052 E9.37317
G1 X97.713 Y100.062 E9.39838
G1 X97.973 Y99.793 F7800.000
G1 E7.39838 F2400.00000
G92 E0
G1 X102.503 Y95.960 F7800.000
G1 E2.00000 F2400.00000
G1 F1800.000
G1 X102.275 Y95.698 E2.03158
G1 X101.779 Y95.054 E2.10554
G1 X101.320 Y94.382 E2.17950
G1 X100.902 Y93.684 E2.25347
G1 X100.525 Y92.963 E2.32743
G1 X100.190 Y92.222 E2.40139
G1 X99.900 Y91.462 E2.47535
